dist/img/svg/arrow-down.svg

<svg width="18" height="10" viewBox="0 0 18 10" fill="none" xmlns="http://www.w3.org/2000/svg">
<path d="M-2.7867e-08 0.637522C-2.04358e-08 0.467516 0.058651 0.315725 0.175953 0.182149C0.293255 0.0607157 0.434017 -7.67833e-07 0.59824 -7.60655e-07C0.762463 -7.53477e-07 0.903225 0.0607157 1.02053 0.182149L9.06158 8.50637L16.9619 0.309654C17.044 0.236794 17.1378 0.182149 17.2434 0.145719C17.349 0.121433 17.4487 0.121433 17.5425 0.145719C17.6481 0.182149 17.7419 0.236794 17.824 0.309654C17.9413 0.431087 18 0.576806 18 0.746812C18 0.928962 17.9413 1.08075 17.824 1.20219L9.48387 9.81785C9.42522 9.87857 9.35484 9.92107 9.27273 9.94535C9.20235 9.98178 9.1261 10 9.04399 10C8.97361 10 8.90323 9.98178 8.83284 9.94535C8.76246 9.92107 8.69795 9.87857 8.6393 9.81785L0.175953 1.07468C0.117302 1.01396 0.0762462 0.941104 0.0527858 0.856101C0.0175953 0.783241 -3.10518e-08 0.710382 -2.7867e-08 0.637522Z" fill="#C78E66"/>
</svg>

<svg width="18" height="10" viewBox="0 0 18 10" fill="none" xmlns="http://www.w3.org/2000/svg"><path d="M0 .638C0 .468.059.316.176.182A.566.566 0 0 1 .598 0c.164 0 .305.06.423.182l8.04 8.324 7.9-8.196a.825.825 0 0 1 .282-.164.623.623 0 0 1 .3 0c.105.036.199.09.281.164A.607.607 0 0 1 18 .747a.63.63 0 0 1-.176.455l-8.34 8.616a.476.476 0 0 1-.211.127.49.49 0 0 1-.229.055.456.456 0 0 1-.211-.055.492.492 0 0 1-.194-.127L.176 1.075A.5.5 0 0 1 .053.856.499.499 0 0 1 0 .638z" fill="#C78E66"/></svg>
